icons/Yaru-dark/24x24/panel/audio-input-microphone-muted.svg

<svg version="1.1" viewBox="0 0 24 24" xmlns="http://www.w3.org/2000/svg">
 <path d="m11.5 3c-1.385 0-2.5 1.115-2.5 2.5v7c0 0.32293 0.063305 0.62925 0.17383 0.91211l4.8262-4.8262v-3.0859c0-1.385-1.115-2.5-2.5-2.5zm7.5469 2.0664-14.219 14.219 0.70703 0.70703 3.6445-3.6445a4.5354 4.5 0 0 0 1.8203 0.61719v3.0234 0.011719c-1.7441 0.07151-3 0.48828-3 0.48828v0.5h3v0.011719h1v-0.011719h3v-0.5c0 1e-6 -1.2559-0.41677-3-0.48828v-0.011719-3.0234a4.5354 4.5 0 0 0 4-3.9648v-2h-1v2h-0.011719a3.5276 3.5 0 0 1-2.9883 2.9648v-0.46484h-1v0.46484a3.5276 3.5 0 0 1-1.0703-0.36719l0.74219-0.74219c0.25947 0.091386 0.53653 0.14453 0.82812 0.14453 1.385 0 2.5-1.115 2.5-2.5v-0.97266l5.7539-5.7539-0.70703-0.70703zm-12.047 5.9336v2a4.5354 4.5 0 0 0 0.68164 1.9043l0.74609-0.74609a3.5276 3.5 0 0 1-0.41602-1.1582h-0.011719v-2h-1z" fill="#fff" opacity=".5" stroke-width="1.8516"/>
</svg>

<svg viewBox="0 0 24 24" xmlns="http://www.w3.org/2000/svg"><path d="M11.5 3A2.495 2.495 0 0 0 9 5.5v7c0 .323.063.63.174.912L14 8.586V5.5C14 4.115 12.885 3 11.5 3zm7.547 2.066-14.22 14.22.708.706 3.644-3.644a4.535 4.5 0 0 0 1.82.617V20c-1.743.072-3 .489-3 .489v.5h3V21h1v-.011h3v-.5s-1.255-.417-3-.489v-3.035A4.535 4.5 0 0 0 16 13v-2h-1v2h-.011A3.528 3.5 0 0 1 12 15.965V15.5h-1v.465a3.528 3.5 0 0 1-1.07-.367l.742-.742A2.495 2.495 0 0 0 14 12.5v-.973l5.754-5.754-.707-.707zM7 11v2a4.535 4.5 0 0 0 .682 1.904l.746-.746A3.528 3.5 0 0 1 8.012 13H8v-2H7z" fill="#fff" opacity=".5"/></svg>
